X:144
T:Steve's Kitchen Jig
S:Steve's Kitchen Demo CD
Z:robin.beech@mcgill.ca
M:6/8
L:1/8
K:A
e2e fed | c2A ABc | d2d cBA | FGE- EFG |
A2A GAE | FG/A/B- Bcd |1 e2e fg/a/b | age- ecd :|2 
e2a abg | a3- a2e |: a2a gae | ^de=d =cAA | 
=gdd dBA | =G3- G2E | A2E EF/G/A | Bcd- dcd |1 
e2e fg/a/b | age- efg :|2  e2a abg | a6 |]
